X: 1
T: Hen's March Through The Middens, The
M: 4/4
L: 1/8
R: reel
K: Dmaj
A2|:d2 A2 defg| agfe e4|dcde f2 f2| gfg^g a2 a2|
agfa gfeg|fedf e2 A2| df eg fa gf|e2 c2 d4:|
A2 c2 A2 c2|A2 c c3 e2 | d2 f2 d2 f2| d2 f f3 a2|
d2 g g3 b2| d2 f f3 a2 |d2 g g3 b2|d2 f f3 a2|
agfa gfeg| fedf e2 A2 | df eg fa gf|e2 c2 d4:|
